X:682
T:Mrs. Brown of Linkwood
R:Reel
C:William Marshall
B:The Athole Collection
M:C|
L:1/8
K:E Minor
F|E>FG>A B2 B>^c|d>Bad FDAF|E>FGA B2 Bf|gef^d e/e/e e:|
f|gef^d e2 Be|dBAd FDDf|gef^d Be|d>BAF E/E/E Ef|gef^d e2 Be|
dBAd FDDF|E>FGA B2 Bf|gef^d e/e/e e||

